**kern	**kern
*staff1	*staff2
*clefG2	*clefG2
*k[b-]	*k[b-]
*M2/4	*M2/4
*F:	*F:
(8.ffL 8.aa	(8CL
.	16FJk)
16eeJk) 16gg	16r
=259	=259
(8.ddL 8.ff	(8FL
.	16AJk)
16ccJk) 16ee	16r
16b-'LL 16dd'	(8AL
16a' 16cc'	.
16g' 16b-'	16cJk)
16f'JJ 16a'	16r
=260	=260
16r	(4B-
16e'LK 16g'	.
8ccJ	.
16r	4A)
16f'LK 16a'	.
8ccJ	.
=261	=261
*^	*
(16b-LL	8r	8GL
16cc	.	.
16dd-	8b-	8FJ
16ccJJ)	.	.
(16dd-LL	8b-L	8EL
16cc	.	.
16dd-	8b-J	8FJ
16ccJJ)	.	.
=262	=262	=262
8cc	8b-	8GL
8r	8r	8CJ
*v	*v	*
(8.aaL 8.ccc 8.fff	(8CCL
.	16FFJk)
16ggJk) 16bb- 16eee	16r
=263	=263
(8.ffL 8.aa 8.ddd	(8FFL
.	16AAJk)
16eeJk) 16gg 16ccc	16r
16dd'LL 16ff' 16bb-'	(8AAL
16cc' 16ee' 16aa'	.
16b-' 16dd' 16gg'	16CJk)
16a'JJ 16cc' 16ff'	16r
=264	=264
16r	(4BB-
16g'LK 16cc' 16ee'	.
8eeJ 8gg 8ccc	.
16r	4AA)
16a'LK 16cc' 16ff'	.
8ffJ 8aa 8ccc	.
=265	=265
16r	8GG'L
16cc 16ee 16gg	.
16r	8GG'J
16cc 16ee 16gg	.
16r	8AA'L
16dd 16ff 16gg	.
16r	8BB'J
16dd 16ff 16gg	.
=266	=266
(16ccLL 16gg	(4C
16ee 16ff#	.
16cc 16gg	.
16eeJJ 16ff#	.
16ccLL 16gg	8DL
16ee 16ff#	.
16cc 16gg	8EJ)
16eeJJ) 16ff#	.
=267	=267
(16ccLL 16aa	(8GGL 8C
16ee) 16gg	.
16ee' 16gg'	16GJk)
16ee'JJ 16gg'	16r
(16ddLL 16aa	(8GGL 8BB
16ff) 16gg	.
16ff' 16gg'	16GJk)
16ff'JJ 16gg'	16r
=268	=268
(16ccLL 16gg	(4C
16ee 16ff#	.
16cc 16gg	.
16eeJJ 16ff#	.
16ccLL 16gg	8DL
16ee 16ff#	.
16cc 16gg	8EJ)
16eeJJ) 16ff#	.
=269	=269
(16ccLL 16aa	(8GGL 8C
16ee) 16gg	.
16ee' 16gg'	16GJk)
16ee'JJ 16gg'	16r
(16ddLL 16aa	(8GGL 8BB
16ff) 16gg	.
16ff' 16gg'	16GJk)
16ff'JJ 16gg'	16r
=270	=270
8ee;L [8gg;	4C;
8cc;J	.
*-	*-
